!!!!SEGMENT: pl-wnifc--6803-n--003_tymolski-fabian--mazury-na-peronie-op-142-mazur-no-2.krn
!!!cenid: 18xx:3994
!!!COM: Tymolski, Fabian
!!!COM-rismID: pe30006748
!!!CDT: 1828/01/14-1885
!!!CNT:
!!!OPR: Mazury „Na Peronie” op. 142
!!!OTL: [Mazur] No. 2
!!!OMV: 003
!!!PDT:
!!!AGN:
!!!SMS-siglum: PL-Wnifc
!!!SMS-shelfmark: 6803/n
!!!SMS-shelfwork: 001-003 M
!!!SMS-variant:
!!!SMS-altvar:
!!!NIFC-rismSourceID: 1001158046
!!!NIFC-rismChildID: 1001158237
!!!NIFC-islandoraID: nifc:213566
!!!URL-pdf-islandora: https://repozytorium.nifc.pl/islandora/object/nifc%3A213566/datastream/PDF/view
!!!URL-scan: https://polish.musicsources.pl/pl/lokalizacje/galeria/druki-muzyczne/16923 @EN{Scan on Polish Music Sources Website} @PL{Skany w portalu Dziedzictwo Muzyki Polskiej w otwartym dostępie}
!!!ONB-nifc: UWAGA: części: 1. Wstęp, 2. Mazur No. 1, 3. Mazur No. 2, 4. Mazur No. 3, 5. Zakończenie
!!!AIN: 2 piano
!!!key: G
**kern	**kern	**dynam
*part2	*part1	*part1
*staff2	*staff1	*
*I"[Piano]	*I"[Piano]	*
*I'pf	*I'pf	*
*ICklav	*ICklav	*
*Ipiano	*Ipiano	*
*clefF4	*clefG2	*
*k[f#]	*k[f#]	*
*G:	*G:	*
*M3/8	*M3/8	*
=1	=1	=1
!	!LO:TX:a:i:t=risoluto	!
!	!LO:TX:b:B:t=No. 2.	!
16G\ 16B 16d	16b'\ 16dd	f
16r	16r	.
4G^\ 4B 4d	4b^\ 4dd 4gg	.
=2	=2	=2
16C\ 16E 16A 16c	16cc'\ 16ee	.
16r	16r	.
4C^\ 4E 4A 4c	4cc^\ 4ee 4aa	.
=3	=3	=3
!	!LO:TUP:a:problem:klamra łukowa	!
8DD/ 8D	24dd\LL	.
.	24ee\	.
.	24dd\JJ	.
8D\L 8F# 8c	16cc#X'\LL	.
.	16dd'\	.
8D\J 8A 8c	16ee'\	.
.	16ff#'\JJ	.
=4	=4	=4
8GG/ 8G	16gg'\LL	.
.	16aa'\JJ	.
8G\L 8B	8bb'\L	.
8G^\J 8B 8d	8dd^\J 8bb 8ddd	.
=5	=5	=5
16G\ 16B 16d	16b'\ 16dd	.
16r	16r	.
4G^\ 4B 4d	4b^\ 4dd 4gg	.
!!LO:LB:g=original	!	!
=6	=6	=6
16C'\ 16E 16A 16c	16cc\ 16ee	.
16r	16r	.
4C^\ 4E 4A 4c	4cc^\ 4ee 4aa	.
=7	=7	=7
!	!LO:TUP:a:problem:klamra łukowa	!
8DD/L 8D	24dd\LL	.
.	24ee\	.
.	24dd\JJ	.
8FF#/ 8F#	16cc#X'\LL	.
.	16dd'\	.
8DD/J 8D	16ee'\	.
.	16ff#'\JJ	.
=8	=8	=8
8GG\L 8G	8gg'\L	.
!	!LO:TX:b:i:B:t=Fine.	!
8G\J 8B 8d	8b'\J 8dd 8gg	.
8r	8r	.
=9:|!|:	=9:|!|:	=9:|!|:
!	!LO:TX:a:i:t=dolce	!
8E\L 8G 8B 8e	16ee\LL	pp
.	16gg\JJ	.
.	8qgg/	.
8E\ 8G 8B 8e	8bb\L	.
8E\J 8G 8B 8e	8bb\J	.
=10	=10	=10
.	8qbb/	.
8E\L 8A 8B 8d#X	4aa\	.
8E\ 8A 8B 8d#	.	.
8E\J 8A 8B 8d#	16gg\LL	.
.	16ff#\JJ	.
!!LO:LB:g=original	!	!
=11	=11	=11
8E\L 8G 8B 8e	16ee\LL	.
.	16ff#\JJ	.
8E\ 8G 8B 8e	8gg\L	.
8E\J 8G 8B 8e	8gg\J	.
=12	=12	=12
.	(8qgg/	.
8E\L 8A 8B 8d#X	(4ff#\)	.
8E\ 8A 8B 8d#	.	.
8E\J 8A 8B 8d#	16dd#X\LL	.
.	16b\JJ)	.
=13	=13	=13
8E\L 8A 8c	(16a'\LL	p
.	16b'\JJ	.
8E\ 8A 8c	8cc'\L	.
8E\J 8A 8c	8cc'\J)	.
=14	=14	=14
16E\ 16G 16B	16b\	.
16r	16r	.
4E^\ 4G 4B	4g^\ 4ee	.
=15	=15	=15
8BBB/ 8BB	(16ff#\LL	f
.	16ccc\JJ)	.
8F#\L 8A 8B 8d#X	8.bb\L	.
8F#\J 8A 8B 8d#	.	.
.	16dd#X\Jk	.
=16	=16	=16
!LO:TX:b:i:t=Da capo al fine.	!	!
8E\L 8G 8B 8e	8ee\L	.
8E\J 8G 8B 8e	8ee\J 8gg 8eee	.
8r	8r	.
!!LO:PB:g=original	!	!
==17	==17	==17
*k[]	*k[]	*
*C:	*C:	*
!LO:TX:t=P:problem:w źródle brak kasownika	!LO:TX:t=P:problem:w źródle brak kasownika	!
!	!LO:TX:a:B:t=Trio.	!
8C/	16cc\ 16ee	mf
.	16r	.
8G\L 8c 8e	8.ee^\L 8.gg	.
8G\J 8c 8e	.	.
.	16cc\Jk 16ee	.
=18	=18	=18
8GG/	16b\LL 16dd	.
.	16cc\JJ 16ee	.
8G\L 8B 8f	8dd\L 8ff	.
8G\J 8B 8f	8g\J 8dd	.
=19	=19	=19
8C/	16cc\ 16ee	.
.	16r	.
8G\L 8c 8e	8.ee^\L 8.gg	.
8G\J 8c 8e	.	.
.	16cc\Jk 16ee	.
=20	=20	=20
8GG/	16b\LL 16dd	.
.	16cc\JJ 16ee	.
8G\L 8B 8f	8dd\L 8ff	.
8G\J 8B 8f	8g\J 8dd	.
=21	=21	=21
16CC/ 16C	16c/ 16e 16g 16cc	f
16r	16r	.
4EE^>/ 4E	8.cc^\L 8.gg 8.ccc	.
.	16bb\Jk	.
=22	=22	=22
8FF/ 8F	16aa'\LL	.
.	16bb'\JJ	.
8A\L 8c 8f	8ccc'\L	.
8A\J 8c 8f	8aa'\J	.
!!LO:LB:g=original	!	!
=23	=23	=23
8CC/ 8C	8gg'\L	.
8G\L 8c 8e	8ee'\	.
8G\J 8c 8e	8cc'\J	.
=24	=24	=24
8GG/	16dd'\LL	.
.	16ee'\JJ	.
8G\L 8B 8d	8ff'\L	.
8G\J 8B 8f	8g'\J 8dd	.
=25	=25	=25
16CC/ 16C	16c/ 16e 16g 16cc	.
16r	16r	.
4EE^>/ 4E	8.cc^\L 8.gg 8.ccc	.
.	16bb\Jk	.
=26	=26	=26
8FF/ 8F	16aa\LL	.
.	16bb\JJ	.
8A\L 8c 8f	8ccc\L	.
8A\J 8c 8f	8aa\J	.
=27	=27	=27
!	!LO:TUP:a:problem:klamra łukowa	!
8G\L 8c 8e	24gg\LL	.
.	24aa\	.
.	24gg\JJ	.
8G\ 8d 8f	8ff^\L	.
8G\J 8B 8f	16ee\L	.
.	16dd\JJ	.
=28	=28	=28
!LO:TX:b:i:t=Mazur No. 2. da capo.	!	!
8c\L 8e	8cc\L	.
8C\J 8E 8G 8c	8cc\J 8ee 8ccc	.
8r	8r	.
==	==	==
*-	*-	*-
!!!system-decoration: {(s1,s2)}
!!!RDF**kern: > = above
!!!RDF**kern: < = below
!!!ENC: Solarz Mateusz
!!!END: 2022-08-03
!!!ENC: Jan Barakat
!!!END: 2022-09-08
!!!YEC: Copyright 2022 Narodowy Instytut Fryderyka Chopina (https://polishscores.org)
!!!YEM: License CC-BY-4.0 (https://creativecommons.org/licenses/by/4.0)
